X:1
T:Title
L:1/8
M:6/8
K:Ab
V:1 treble nm="Grand Piano"
V:1
 z3 z2[Q:1/4=100] C | F2 A G2 F | =E3- E2 C | D2 F =E2 D | C3- C2 C | F2 A G2 F | c3- c2 B | %7
 c2 d e2 d | c3- c2 c | d2 c B2 A | G2 F =E2 C | D2 F =E2 D | C3- C2 C | F2 G A2 F | G2 A B2 G | %15
 A2 B c2 B/d/ | c3- c2 c | d2 c B2 A | G2 F =E2 C | D2 A G2 F/=E/ | F6 |] %21

